X:224
T:Sean Smyth's No. 14                                                                               
L:1/8                                                                                               
M:4/4                                                                                               
K:A                                                                                                 
AEAc BEBd|cee^d eAce|fefg aece|dBcA BAFB|                                                           
AEAc BFBd|cee^d eA (3cde|fefg aece|1 dBGB AEEE :|2 dBGB A3 e||                                      
(3fff af defa|feae cdea|f2 af defg|afec B3 c|                                                       
ABcA B2 dB|cdec d2 fd|agae f2 ec|1 dBGB A3 e :|2 dBGB A3 B ||                                       
AEAc BEBd|cee^d eAce|fefg aece|dBcA BAFB|                                                           
AEAc BFBd|cee^d eA (3cde|fefg aece|1 dBGB AEEE :|2 dBGB Aaga||                                      
faa d2 aga|daa c2 aga|faa d2 aga|afec B3 c|                                                         
ABcA B2 dB|cdec d2 fd|agae f2 ec|1 dBGB Aaga:|2 dBGB A3 B ||                                        
AEAc BEBd|cee^d eAce|fefg aece|dBcA BAFB|                                                           
AEAc BFBd|cee^d eA (3cde|fefg aece|1 dBGB AEEE :|2 dBGB Aaga||                                      
fa a2 defa|fe a2 cdea|fa a2 defg|afec B3 c|                                                         
ABcA B2 dB|cdec d2 fd|agae f2 ec|1  dBGB Aaga:|2 dBGB A3 B ||
